X:181
T:Algerine Waltz,The. HSJJ.076
O:england
M:3/8
L:1/16
Q:50
S:HSJ Jackson,Wyresdale,Lancs.1823
R:Waltz
A:Lancashire
H:1823
K:D
A2|(dcdefg)|a4a2|gecAce|d2-A2A2|(dcdefg)|a4a2|gecAce|d4:|
|:ce|(gecAGA)|(afdAGA)|(gecAGA)|dfa2A2|dcdefg|a4a2|gecAce|d4:|
|:A2|(B2A2G2)|A2F2F2|(G2F2E2)|F2D2A2|(B2A2G2)|A2F2F2|G2F2E2|D4:|]


